X:75
T:Hinry? Quarter. JBs.075
S:Jas.Blackshaw MS, 1837, N.Shropshire
A:North Shropshire
Z:T. Weatherall 2006
M:6/8
L:1/8
Q:3/8=120
R:Jig
K:F
c|(f2a)a2a|(câ€™2b)g2g|a2a (abg)|(f3e2)c|!
fga a2a|g2gf2f|egcâ€™ =bab|dâ€™3câ€™2:|!
|:câ€™|câ€™2e (ef)g|{g}f2f fef|g2gcâ€™2b|az2z2câ€™|!
(câ€™e)e (ecâ€™)câ€™|câ€™ff (fe)d|(cf)a (câ€™b)g|f3f2:|

